X:1
T:comme l'aymant
T:Comme l'aymant
T:Lupus Hellinck
T:Source : Premier Livre de Chansons à 4 parties---Paris---N.du Chemin---1549. Editor : André Vierendeels (13/12/14).
C:Lupus Hellinck
%%score [ 1 2 [ 3 4 ] ]
L:1/8
Q:1/4=120
M:2/2
K:C
V:1 treble nm="Superius" snm="S"
V:2 treble nm="Altus" snm="A"
V:3 treble-8 nm="Tenor 1" snm="T 1"
V:4 treble-8 nm="Tenor 2" snm="T 2"
V:1
 z8 | z8 | A4 c2 d2 | AB cd e2 f2 | f2 f2 e2 d2 | f3 e/d/ c2 e2- | ed d4 c2 | d4 z2 d2 | d2 d2 A4 | %9
w: ||Com- me l'ay-|mant, _ _ _ _ par|sa ver- tu la-|ten- * * * *||te, at-|trait le fer,|
 z2 A2 c2 d2 | A4 z2 f2 | f2 f2 e2 d2 | f3 e/d/ cd e2- | ed d4 c2 | d2 f2 d2 f2- | fe e4 d2 | e8 | %17
w: at- trait le|fer, vo-|str'oeil at- ti- r'et|ten- * * * * *||te mon coeur na-|vré, _ _ _|_|
 z4 z2 c2 | c2 c2 d2 f2 | ed cB A4 | B2 G2 A4 | z2 A2 A4 | c4 d4 | c8 | z2 c2 c2 c2 | d2 f3 e d2 | %26
w: qui|par- tout le veult|suy- * * * *|* * vre,|pre- nez|le _|corps,|car sans coeur|ne peult _ _|
"^b""^b" c2 BA B4 | A8- | A8- | A8 | z2 A2 c2 d2 | AB cd e2 f2 | f2 f2 e2 d2 | f3 e/d/ cd e2- | %34
w: vi- * * *|vre,|_||tout est à|vous, _ _ _ _ si|vous es- tes con-|ten- * * * * *|
 ed d4 c2 | d4 z2 d2 | d2 d2 A4 | z2 A2 c2 d2 | AB cd e2 f2 | f2 f2 e2 d2 | f3 e/d/ cd e2- | %41
w: |te, tout|est à vous,|tout est à|vous, _ _ _ _ si|vous es- tes con-|ten- * * * * *|
 ed d4 c2 | d8 |] %43
w: |te.|
V:2
 z8 | A,4 C2 D2 | A,B, CD E2 F2 | F2 F2 GE A2- | A2 A2 G2 F2 |"^b" A3 G AF B2- | B2 G2 A4 | %7
w: |Com- me l'ay-|mant _ _ _ _ par|sa ver- tu la- ten-|* te, par sa|ve- * * * tu|_ la- ten-|
 F2 A2 A2 G2 | F3 E/D/ E2 F2 | C4 z2 F2 | F2 F2 E2 D2 | CB, CD EA, A2- | A2 A2 A4 | F2 G2 A4 | %14
w: te, at- trait le|fer, _ _ _ _|_ vo-|str'oeil at- ti- r'et|ten- * * * * * *|* te, at-|ri- r'et ten-|
 F4 z2 A2 | B2 c2 A4- | A2 GF E4 | z4 z2 A2 | A2 A2 B2 A2 | cB AG FG A2 | GF ED E4 | D4 z2 A2 | %22
w: te mon|coeur na- vré,|_ _ _ _|qui|par- tout le veult|suy- * * * * * *||vre, pre-|
 A4 F2 G2 | A8 | z2 A2 A2 A2 | G2 F2 D4 | E2 F2 G4 | C2 A,2 C2 D2 | A,B, CD E2 F2 | E2 C2 E2 D2 | %30
w: nez le _|corps,|car sans coeur|ne peult vi-||vre, tout est à|vous _ _ _ _ si|vous es- tes con-|
 (3:2:2C4 D2 E2 F2 | F4 G2 A2- | A2 A2 G2 F2 |"^b" A6 B2- | B2 G2 A4 | z2 A2 A2 G2 | %36
w: ten- * * *|te, si vous|_ es- tes con-|ten- *|* * te,|tout est à|
 F3 E/D/ E2 F2 | C4 z2 F2 | F4 G2 A2- | A2 A2 G2 F2 |"^b" (3:2:2A4 G2 B4- | B2 G2 A4 |"^#" F8 |] %43
w: vous, _ _ _ _|_ si|vous es- tes|_ con- ten- *||* * ten|te.|
V:3
 z8 | z8 | z8 | A4 c2 d2 | AB cd e2 f2 | f2 f2 ed g2- | gf ed e4 | d8 | z2 A2 c2 d2 | A4 z4 | %10
w: |||Com- me l'ay-|mant _ _ _ _ par|sa ver- tu _ la-|* * * * ten-|te,|at- trait le|fer,|
 A4 c2 d2 | A4 z2 f2 | f2 f2 e2 c2 | d4 e4 | d6 d2 | g4 f4 | e2 c2 c2 c2 | d2 f2 ed cB | A4 z2 c2 | %19
w: at- trait le|fer, vo-|str'oeil at- ti- r'et|ten- *|te mon|coeur na-|vré qui par- tout|le veult suy- * * *|vre, qui|
 c2 c2 d2 f2 | ed d4 c2 | d2 A2 c2 d2 | e2 f4 ed | e4 z2 e2 | e2 c2 f2 f2 | d3 e f2 g2- | %26
w: par- tout le veult|suy- * * *|vre, pre- nez le|corps, _ _ _|_ car|sans coeur ne peult|vi- * * *|
 gf f4 e2 | f8 | z8 | z2 A2 c2 d2 | A4 z4 | z2 A2 c2 d2 | AB cd e2 f2 | f2 f2 ed g2- | gf ed e4 | %35
w: |ve,||tout est à|vous,|tout est à|vous _ _ _ _ si|vous es- tes _ con|_ _ _ _ ten-|
 d8 | z2 A2 c2 d2 | A4 z4 | z2 A2 c2 d2 | AB cd e2 f2 | f2 f2 ed g2- | gfed e4 | d8 |] %43
w: te,|si vous es-|tes|si vous es-|tes, _ _ _ _ si|vous es- tes _ con-||te|
V:4
 D4 F2 G2 | DE FG A2 F2 | F2 F2 E2 D2 | F4 E2 DE | FG AB c2 d2- | d2 A2 A2 G2 |"^b""^b" B2 B2 A4 | %7
w: Com- me l'ay-|mant, _ _ _ _ par|sa ver- tu la-|ten- * * *|* * * * * te,|_ par sa ver-|tu la- ten-|
 D2 D2 F2 G2 | D4 z2 F2 | F2 F2 E2 DE | FG A4 DE | FG AB c2 d2- | d2 A2 AB cA |"^b" B4 A4 | %14
w: te, at- trait le|fer, vo-|str'oeil at- ti- r'et _|_ _ _ ten- *||||
 D4 z2 d2- | d2 c2 d4 | A2 A2 A2 A2 | B2 A2 cB AG | F2 A2 G2 F2 | z2 F2 F2 F2 |"^b" G2 B2 A3 G | %21
w: te mon|_ coeur na-|vé qui par- tout|le veult suy- * * *|* * * vre,|qui par- tout|le veult suy- *|
 FE D2 z2 D2 |"^b" A4 B4 | A8 | z2 A2 A2 F2 |"^b""^b" B6 B2 | A4 G4 | F8 | z2 A2 c2 d2 | A4 z2 D2 | %30
w: * * vre, pre-|nez le|corps,|car sans coeur|ne peult|vi- *|vre,|tout est à|vous, tout|
 F2 F2 E2 D2 |"^#" F4 E2 DE | FG AB c2 d2- | d2 A2 A2 G2 |"^b""^b" B2 B2 A4 | D2 D2 F2 G2 | %36
w: est à vous, tout|est à vous, _|_ _ _ _ _ si|_ vous es- *|tes con- ten-|te, tout est à|
 D4 z2 F2 |"^#" F2 F2 E2 D2 | F4 E2 DE | FG AB c2 d2- | d2 A2 A2 G2 |"^b" B4 A4 | D8 |] %43
w: vous, si|vous es- tes con-|ten- * * *||* te, con- *|ten- *|te.|

